X:359
T:B359-  O'er Boggy
Q:1/4=120
L:1/4
M:C|
K:Am
G/4A/4|c3/4d/4 c/A/ c/G/G/A/|c3/4d/4 (c/4d/4c/4A/4)GG/c/|\
A/(d/d/)c/ d/e/g3/4a/4|\
(g/4a/4g/4e/4) (g/4e/4d/4c/4) (c/A/) A/||G/4A/4|\
c (e/4f/4g/)c(e/4f/4g/)|c/c/ (d/4c/4B/4A/4) GG/c/|\
c/d/d/c/ d/e/g3/4a/4|(g/4a/4g/4e/4) (g/4e/4d/4c/4)AA/|]

